T: Whistle Ower The Lave O't
M: 4/4
L: 1/8
K: Amaj
|: E>B,C<E G>F G2 | B>cG>E F>E C2 | E>B,C<E G>F G2 | E>EG>E F2 E2 :||: B>ce>B c>B G2 | B>cG>E F>E C2 |1 B>ce>B c>B G2 | E>EG>E F2 E2 :||: F>CD<F A>^G A2 | c>dA>f G>F D2 | F>CD<F A>^GA<f | F<FA>F (3GFG F2 :||: (3cde f>c d>c A2 | c>dA>f G>F D2 | c<df>c d<c A2 | F<FA>F G2 F2 :|2 f>ad>f c>d A2 | F<FA>F G2 F2 |||: G>DE>G B>A B2 | de/f/ g>B A<G E2 | G>DE>G B>AB>g | (3GGG B>G A2 G2 :|1 d>eB>g A>G E2 | de/f/ g>d e>dB<g | G2 (3BAG A2 G2 :|2 c>aB>g A<G E2 | g<be<g d>gB>g | (3GGG B>G A2 G2 || |: A>EF<A c>B c2 | e>fc<a B>A F2 | A>EF>A c>B ca | B>Ac<A B2 A2 :|1 e>fc<a B<A F2 | ef/g/ a>g f<ec<a | B>Ac<A B2 A2 :| 2 ef/g/ a>c' b<af>g | a>c'f>a e>fc<a | (3AAA cB/A/ B2 A2 ||
